.files/icons/devices/CPU.svg

<svg fill="none" height="48" viewBox="0 0 48 48" width="48" xmlns="http://www.w3.org/2000/svg"><g fill="#000"><rect height="32" opacity=".3" rx="2" width="32" x="8" y="8"/><path d="m18 18h12v12h-12z" opacity=".3"/><path d="m40 14h3c.5523 0 1 .4477 1 1v2c0 .5523-.4477 1-1 1h-3z"/><path d="m40 22h3c.5523 0 1 .4477 1 1v2c0 .5523-.4477 1-1 1h-3z"/><path d="m40 30h3c.5523 0 1 .4477 1 1v2c0 .5523-.4477 1-1 1h-3z"/><path d="m4 15c0-.5523.44772-1 1-1h3v4h-3c-.55228 0-1-.4477-1-1z"/><path d="m4 23c0-.5523.44772-1 1-1h3v4h-3c-.55228 0-1-.4477-1-1z"/><path d="m4 31c0-.5523.44772-1 1-1h3v4h-3c-.55228 0-1-.4477-1-1z"/></g></svg>

<svg width="48" height="48" viewBox="0 0 48 48" fill="none" xmlns="http://www.w3.org/2000/svg">
<rect opacity="0.3" x="8" y="8" width="32" height="32" rx="2" fill="black"/>
<rect opacity="0.3" x="18" y="18" width="12" height="12" fill="black"/>
<path d="M40 14H43C43.5523 14 44 14.4477 44 15V17C44 17.5523 43.5523 18 43 18H40V14Z" fill="black"/>
<path d="M40 22H43C43.5523 22 44 22.4477 44 23V25C44 25.5523 43.5523 26 43 26H40V22Z" fill="black"/>
<path d="M40 30H43C43.5523 30 44 30.4477 44 31V33C44 33.5523 43.5523 34 43 34H40V30Z" fill="black"/>
<path d="M4 15C4 14.4477 4.44772 14 5 14H8V18H5C4.44772 18 4 17.5523 4 17V15Z" fill="black"/>
<path d="M4 23C4 22.4477 4.44772 22 5 22H8V26H5C4.44772 26 4 25.5523 4 25V23Z" fill="black"/>
<path d="M4 31C4 30.4477 4.44772 30 5 30H8V34H5C4.44772 34 4 33.5523 4 33V31Z" fill="black"/>
</svg>
